src/topics/icons/promises.svg

<svg height="256" preserveAspectRatio="xMidYMid" viewBox="0 0 256 256" width="256" xmlns="http://www.w3.org/2000/svg"><path d="m0 .252451h255.832713v255.717133h-255.832713z" fill="#fbde34"/><path d="m110.258947 197.039398v7.480776h-8.189466v20.158606c0 1.890345.314804 3.150068.944919 3.780182.630115.629608 1.889838.944412 3.779675.944412.630115 0 1.232856-.025853 1.811264-.078574.576887-.051707 1.128427-.130281 1.653608-.23623v8.661925c-.944919.157655-1.995787.262083-3.149561.314804-1.155295.052214-2.283723.078574-3.386297.078574-1.732182 0-3.373624-.117608-4.9212831-.353837-1.5491802-.236737-2.9133307-.695509-4.0944792-1.378345-1.1811485-.681822-2.113901-1.653608-2.7957227-2.913331-.6828357-1.259722-1.0234931-2.913837-1.0234931-4.960823v-24.017363h-6.7720871v-7.480776h6.7720871v-12.20537h11.1818771v12.20537zm15.748308-15.512079v21.182099h.23623c1.417378-2.362297 3.228642-4.081299 5.433283-5.15802 2.204642-1.0752 4.356563-1.614574 6.456777-1.614574 2.992411 0 5.445449.407572 7.362661 1.220689 1.915184.814131 3.425331 1.942558 4.527905 3.386297 1.102574 1.444245 1.87615 3.202281 2.322756 5.275628.445592 2.07436.669149 4.370249.669149 6.890202v25.040855h-11.181877v-22.992855c0-3.35943-.525181-5.866709-1.574527-7.520317-1.050867-1.653608-2.913331-2.480919-5.590939-2.480919-3.045132 0-5.249774.905885-6.614431 2.716642-1.365672 1.811263-2.047493 4.791002-2.047493 8.937695v21.339754h-11.181878v-56.223176zm43.544333 46.458677c1.679462 1.627754 4.094479 2.440871 7.244547 2.440871 2.256348 0 4.198907-.5632 5.827168-1.693148 1.626234-1.128428 2.62438-2.322757 2.991905-3.582479h9.843073c-1.574527 4.882249-3.990051 8.373988-7.244546 10.472681-3.255509 2.100721-7.192333 3.150067-11.811485 3.150067-3.202789 0-6.090773-.512-8.661925-1.535493-2.572674-1.024-4.751969-2.480412-6.536365-4.370249-1.784903-1.889838-3.163247-4.146694-4.133512-6.771581-.972294-2.624887-1.456919-5.512364-1.456919-8.661924 0-3.044119.497806-5.878876 1.495952-8.50427.996626-2.62438 2.414004-4.894416 4.252135-6.811627 1.837117-1.915692 4.028578-3.425331 6.575398-4.527905 2.545299-1.102575 5.366875-1.654115 8.465236-1.654115 3.464364 0 6.482629.669148 9.055302 2.008459 2.571153 1.338804 4.685054 3.136887 6.338662 5.393743 1.654115 2.257869 2.84743 4.830542 3.582986 7.717513.734543 2.887477.996626 5.905235.787263 9.055303h-29.371057c.157655 3.622526 1.0752 6.24792 2.756182 7.874154zm12.638289-21.418329c-1.338804-1.469085-3.373624-2.205148-6.102938-2.205148-1.784903 0-3.267676.303144-4.448824.905378-1.181149.604261-2.125561 1.352491-2.834757 2.244689-.708689.893212-1.208522 1.838131-1.495952 2.834757-.288951.998146-.460293 1.889837-.512 2.677101h18.189687c-.52518-2.83425-1.456412-4.986171-2.795216-6.456777zm27.284531-9.528269v5.67002h.23623c1.417378-2.362297 3.254495-4.081299 5.512364-5.15802 2.256348-1.0752 4.566939-1.614574 6.929236-1.614574 2.992412 0 5.445449.407572 7.362661 1.220689 1.915184.814131 3.425331 1.942558 4.527905 3.386297 1.102574 1.444245 1.87615 3.202281 2.322756 5.275628.445592 2.07436.669149 4.370249.669149 6.890202v25.040855h-11.181877v-22.992855c0-3.35943-.525181-5.866709-1.574527-7.520317-1.050867-1.653608-2.913331-2.480919-5.590939-2.480919-3.045132 0-5.249774.905885-6.614431 2.716642-1.365672 1.811263-2.047493 4.791002-2.047493 8.937695v21.339754h-11.181878v-40.711097z" fill="#524739"/></svg>

<?xml version="1.0" encoding="UTF-8" standalone="no"?>
<svg width="256px" height="256px" viewBox="0 0 256 256" version="1.1" xmlns="http://www.w3.org/2000/svg" xmlns:xlink="http://www.w3.org/1999/xlink" preserveAspectRatio="xMidYMid">
	<g>
		<rect fill="#FBDE34" x="0" y="0.252451485" width="255.832713" height="255.717133"></rect>
		<path d="M110.258947,197.039398 L110.258947,204.520174 L102.069481,204.520174 L102.069481,224.67878 C102.069481,226.569125 102.384285,227.828848 103.0144,228.458962 C103.644515,229.08857 104.904238,229.403374 106.794075,229.403374 C107.42419,229.403374 108.026931,229.377521 108.605339,229.3248 C109.182226,229.273093 109.733766,229.194519 110.258947,229.08857 L110.258947,237.750495 C109.314028,237.90815 108.26316,238.012578 107.109386,238.065299 C105.954091,238.117513 104.825663,238.143873 103.723089,238.143873 C101.990907,238.143873 100.349465,238.026265 98.8018059,237.790036 C97.2526257,237.553299 95.8884752,237.094527 94.7073267,236.411691 C93.5261782,235.729869 92.5934257,234.758083 91.911604,233.49836 C91.2287683,232.238638 90.8881109,230.584523 90.8881109,228.537537 L90.8881109,204.520174 L84.1160238,204.520174 L84.1160238,197.039398 L90.8881109,197.039398 L90.8881109,184.834028 L102.069988,184.834028 L102.069988,197.039398 L110.258947,197.039398 Z M126.007255,181.527319 L126.007255,202.709418 L126.243485,202.709418 C127.660863,200.347121 129.472127,198.628119 131.676768,197.551398 C133.88141,196.476198 136.033331,195.936824 138.133545,195.936824 C141.125956,195.936824 143.578994,196.344396 145.496206,197.157513 C147.41139,197.971644 148.921537,199.100071 150.024111,200.54381 C151.126685,201.988055 151.900261,203.746091 152.346867,205.819438 C152.792459,207.893798 153.016016,210.189687 153.016016,212.70964 L153.016016,237.750495 L141.834139,237.750495 L141.834139,214.75764 C141.834139,211.39821 141.308958,208.890931 140.259612,207.237323 C139.208745,205.583715 137.346281,204.756404 134.668673,204.756404 C131.623541,204.756404 129.418899,205.662289 128.054242,207.473046 C126.68857,209.284309 126.006749,212.264048 126.006749,216.410741 L126.006749,237.750495 L114.824871,237.750495 L114.824871,181.527319 L126.007255,181.527319 Z M169.551588,227.985996 C171.23105,229.61375 173.646067,230.426867 176.796135,230.426867 C179.052483,230.426867 180.995042,229.863667 182.623303,228.733719 C184.249537,227.605291 185.247683,226.410962 185.615208,225.15124 L195.458281,225.15124 C193.883754,230.033489 191.46823,233.525228 188.213735,235.623921 C184.958226,237.724642 181.021402,238.773988 176.40225,238.773988 C173.199461,238.773988 170.311477,238.261988 167.740325,237.238495 C165.167651,236.214495 162.988356,234.758083 161.20396,232.868246 C159.419057,230.978408 158.040713,228.721552 157.070448,226.096665 C156.098154,223.471778 155.613529,220.584301 155.613529,217.434741 C155.613529,214.390622 156.111335,211.555865 157.109481,208.930471 C158.106107,206.306091 159.523485,204.036055 161.361616,202.118844 C163.198733,200.203152 165.390194,198.693513 167.937014,197.590939 C170.482313,196.488364 173.303889,195.936824 176.40225,195.936824 C179.866614,195.936824 182.884879,196.605972 185.457552,197.945283 C188.028705,199.284087 190.142606,201.08217 191.796214,203.339026 C193.450329,205.596895 194.643644,208.169568 195.3792,211.056539 C196.113743,213.944016 196.375826,216.961774 196.166463,220.111842 L166.795406,220.111842 C166.953061,223.734368 167.870606,226.359762 169.551588,227.985996 Z M182.189877,206.567667 C180.851073,205.098582 178.816253,204.362519 176.086939,204.362519 C174.302036,204.362519 172.819263,204.665663 171.638115,205.267897 C170.456966,205.872158 169.512554,206.620388 168.803358,207.512586 C168.094669,208.405798 167.594836,209.350717 167.307406,210.347343 C167.018455,211.345489 166.847113,212.23718 166.795406,213.024444 L184.985093,213.024444 C184.459913,210.190194 183.528681,208.038273 182.189877,206.567667 Z M209.474408,197.039398 L209.474408,202.709418 L209.710638,202.709418 C211.128016,200.347121 212.965133,198.628119 215.223002,197.551398 C217.47935,196.476198 219.789941,195.936824 222.152238,195.936824 C225.14465,195.936824 227.597687,196.344396 229.514899,197.157513 C231.430083,197.971644 232.94023,199.100071 234.042804,200.54381 C235.145378,201.988055 235.918954,203.746091 236.36556,205.819438 C236.811152,207.893798 237.034709,210.189687 237.034709,212.70964 L237.034709,237.750495 L225.852832,237.750495 L225.852832,214.75764 C225.852832,211.39821 225.327651,208.890931 224.278305,207.237323 C223.227438,205.583715 221.364974,204.756404 218.687366,204.756404 C215.642234,204.756404 213.437592,205.662289 212.072935,207.473046 C210.707263,209.284309 210.025442,212.264048 210.025442,216.410741 L210.025442,237.750495 L198.843564,237.750495 L198.843564,197.039398 L209.474408,197.039398 L209.474408,197.039398 Z" fill="#524739"></path>
	</g>
</svg>
